rospo-icon-theme-classic-common/32x32/apps/sgt-launcher.svg

<svg height="32" width="32" xmlns="http://www.w3.org/2000/svg"><path d="m2 17v12.599609c0 .7756.6247906 1.400391 1.4003906 1.400391h12.5996094 12.599609c.7756 0 1.400391-.624791 1.400391-1.400391v-12.599609h-14z" opacity=".2"/><path d="m16 2h-12.6c-.7756 0-1.4.6244-1.4 1.4v12.6h14z" fill="#8e8e8e"/><path d="m16 2h12.6c.7756 0 1.4.6244 1.4 1.4v12.6h-14z" fill="#e4e4e4"/><path d="m16 30h-12.6c-.7756 0-1.4-.6244-1.4-1.4v-12.6h14z" fill="#45792a"/><path d="m16 30h12.6c.7756 0 1.4-.6244 1.4-1.4v-12.6h-14z" fill="#8e8e8e"/><circle cx="9" cy="10" opacity=".1" r="4"/><circle cx="9" cy="9" fill="#fff" r="4"/><path d="m14.070352 26.759076 4.018844 6.960842 4.018844 6.960843h-8.037688-8.037689l4.018844-6.960842z" opacity=".1" transform="matrix(.6220694 0 0 .71830386 .247265 -.221148)"/><path d="m14.070352 26.759076 4.018844 6.960842 4.018844 6.960843h-8.037688-8.037689l4.018844-6.960842z" fill="#ffdd4c" transform="matrix(.6220694 0 0 .71830386 .247265 -1.221148)"/><path d="m22 6v3h-3v2h3v3h2v-3h3v-2h-3v-3z" opacity=".1"/><path d="m22 5v3h-3v2h3v3h2v-3h3v-2h-3v-3z" fill="#3f3f3f"/><path d="m25 21h2v8h-2z" opacity=".1"/><path d="m25 20h2v8h-2z" fill="#3f3f3f"/><path d="m14.070352 26.759076 4.018844 6.960842 4.018844 6.960843h-8.037688-8.037689l4.018844-6.960842z" opacity=".1" transform="matrix(0 .43544858 .64647347 0 .700967 16.373085)"/><path d="m14.070352 26.759076 4.018844 6.960842 4.018844 6.960843h-8.037688-8.037689l4.018844-6.960842z" fill="#e33939" transform="matrix(0 .43544858 .64647347 0 .700967 15.373085)"/><path d="m3.4003906 2c-.7756 0-1.4003906.6247906-1.4003906 1.4003906v1c0-.7756.6247906-1.4003906 1.4003906-1.4003906h12.5996094 12.599609c.7756 0 1.400391.6247906 1.400391 1.4003906v-1c0-.7756-.624791-1.4003906-1.400391-1.4003906h-12.599609z" fill="#fff" opacity=".2"/></svg>

<svg xmlns="http://www.w3.org/2000/svg" width="32" height="32" version="1">
 <g>
  <path style="opacity:0.2" d="M 2,17 2,29.599609 C 2,30.375209 2.6247906,31 3.4003906,31 L 16,31 28.599609,31 C 29.375209,31 30,30.375209 30,29.599609 L 30,17 16,17 2,17 Z"/>
 </g>
 <path style="fill:#8e8e8e" d="M 16,2 3.4,2 C 2.6244,2 2,2.6244 2,3.4 L 2,16 16,16 Z"/>
 <path style="fill:#cccccc" d="M 16,2 28.6,2 C 29.3756,2 30,2.6244 30,3.4 L 30,16 16,16 Z"/>
 <path style="fill:#45792a" d="M 16,30 3.4,30 C 2.6244,30 2,29.3756 2,28.6 L 2,16 16,16 Z"/>
 <path style="fill:#8e8e8e" d="m 16,30 12.6,0 C 29.3756,30 30,29.3756 30,28.6 L 30,16 16,16 Z"/>
 <circle style="opacity:0.1" cx="9" cy="10" r="4"/>
 <circle style="fill:#ffffff" cx="9" cy="9" r="4"/>
 <path style="opacity:0.1" d="m 14.070352,26.759076 4.018844,6.960842 4.018844,6.960843 -8.037688,0 -8.037689,0 4.018844,-6.960842 z" transform="matrix(0.6220694,0,0,0.71830386,0.24726492,-0.22114771)"/>
 <path style="fill:#ffdd4c" d="m 14.070352,26.759076 4.018844,6.960842 4.018844,6.960843 -8.037688,0 -8.037689,0 4.018844,-6.960842 z" transform="matrix(0.6220694,0,0,0.71830386,0.24726492,-1.2211477)"/>
 <path style="opacity:0.1" d="m 22,6 0,3 -3,0 0,2 3,0 0,3 2,0 0,-3 3,0 0,-2 -3,0 0,-3 -2,0 z"/>
 <path style="fill:#3f3f3f" d="M 22 5 L 22 8 L 19 8 L 19 10 L 22 10 L 22 13 L 24 13 L 24 10 L 27 10 L 27 8 L 24 8 L 24 5 L 22 5 z"/>
 <rect style="opacity:0.1" width="2" height="8" x="25" y="21"/>
 <rect style="fill:#3f3f3f" width="2" height="8" x="25" y="20"/>
 <path style="opacity:0.1" d="m 14.070352,26.759076 4.018844,6.960842 4.018844,6.960843 -8.037688,0 -8.037689,0 4.018844,-6.960842 z" transform="matrix(0,0.43544858,0.64647347,0,0.70096721,16.373085)"/>
 <path style="fill:#e33939" d="m 14.070352,26.759076 4.018844,6.960842 4.018844,6.960843 -8.037688,0 -8.037689,0 4.018844,-6.960842 z" transform="matrix(0,0.43544858,0.64647347,0,0.70096721,15.373085)"/>
 <path style="fill:#ffffff;opacity:0.2" d="M 3.4003906 2 C 2.6247906 2 2 2.6247906 2 3.4003906 L 2 4.4003906 C 2 3.6247906 2.6247906 3 3.4003906 3 L 16 3 L 28.599609 3 C 29.375209 3 30 3.6247906 30 4.4003906 L 30 3.4003906 C 30 2.6247906 29.375209 2 28.599609 2 L 16 2 L 3.4003906 2 z"/>
</svg>
